assets/Person vampire/Medium/Flat/person_vampire_flat_medium.svg

<svg width="32" height="32" viewBox="0 0 32 32" fill="none" xmlns="http://www.w3.org/2000/svg">
<path d="M15.92 8.43005C11.82 8.43005 8.10005 9.09005 5.40005 11.7701C5.14005 12.0301 5.01005 12.4001 5.08005 12.7701C5.47005 15.0601 6.58005 17.1701 8.28005 18.8201C10.34 20.8101 13.06 21.9101 15.92 21.9101C18.78 21.9101 21.5 20.8101 23.56 18.8201C25.26 17.1801 26.37 15.0701 26.76 12.7701C26.82 12.4101 26.7 12.0301 26.44 11.7701C23.74 9.09005 20.02 8.43005 15.92 8.43005Z" fill="#321B41"/>
<path d="M15.9301 7.43005C12.0862 7.43005 8.5727 8.88328 5.93005 11.2786C6.12024 16.6405 10.5246 20.9301 15.9301 20.9301C21.3355 20.9301 25.7399 16.6405 25.9301 11.2786C23.2774 8.88328 19.7739 7.43005 15.9301 7.43005Z" fill="#F92F60"/>
<path d="M15.9399 15.33C13.1799 15.33 10.93 16.4 9 18.19L8 24.095L9 30H12.75L16.0117 29L19.25 30H23L24 24.075L23 18.15C21.09 16.38 18.6799 15.33 15.9399 15.33Z" fill="#321B41"/>
<path d="M26.23 22.78C26.75 24.46 27.01 26.21 27 27.97L26.98 30H23V18.16C24.33 19.39 25.66 20.97 26.23 22.78Z" fill="#533566"/>
<path d="M5.8 22.8099L5.82 22.7299C6.39 20.9499 7.7 19.3999 9 18.1899V29.9999H5V27.9299C5 26.1899 5.27 24.4699 5.8 22.8099Z" fill="#533566"/>
<path d="M12.9541 16.3199L15.801 20.7099C15.8929 20.8499 16.1071 20.8499 16.199 20.7099L19.0765 16.3299L19.25 16.1999V29.9999L12.75 30L12.7704 16.1899L12.9541 16.3199Z" fill="#F8312F"/>
<path d="M18.6331 24.36L16.9926 14.79L16.1672 13.58H15.291L14.8834 14.79L13.2734 24.74H13.2836L13.2531 24.95C13.2225 25.16 13.4263 25.34 13.6199 25.27C14.0988 25.09 14.6694 25.19 15.0566 25.57C15.5864 26.09 16.4322 26.09 16.962 25.57C17.3288 25.21 17.8587 25.1 18.3274 25.24C18.5618 25.31 18.7859 25.11 18.7452 24.88L18.6331 24.36Z" fill="#D3D3D3"/>
<path d="M13.4688 20.01L15.6659 18.13C15.8583 17.97 16.1417 17.97 16.3341 18.13L18.5312 20.01C18.8349 20.22 19.25 20.01 19.25 19.64V15.76C18.2477 15.37 17.1441 15.16 16 15.16C14.8559 15.16 13.7625 15.37 12.75 15.76V19.64C12.75 20.01 13.1651 20.22 13.4688 20.01Z" fill="#E6E6E6"/>
<path d="M20.4844 14.66C20.6438 14.31 20.7634 13.93 20.8133 13.53L20.9029 12.09C21.2119 12.07 21.5108 11.96 21.75 11.78V12.7C21.75 13.55 21.2517 14.32 20.4844 14.66Z" fill="#212121"/>
<path d="M10.25 11.79C10.4991 11.97 10.8081 12.08 11.1469 12.09L11.2465 13.54C11.2964 13.95 11.4159 14.34 11.5854 14.7C10.7881 14.37 10.25 13.59 10.25 12.71V11.79Z" fill="#212121"/>
<path d="M9.47705 10.8178C9.89531 11.6514 10.2837 12.2174 11.1899 12.2174L10.9708 8.87273C10.1343 8.24496 9.38742 7.79214 9.09862 7.73039C8.21229 7.52456 8.96915 9.81953 9.47705 10.8178Z" fill="#BB806E"/>
<path d="M22.4292 10.8178C22.0109 11.6514 21.6225 12.2174 20.7163 12.2174L20.9354 8.87273C21.7719 8.24496 22.5188 7.79214 22.8076 7.73039C23.694 7.52456 22.9371 9.81953 22.4292 10.8178Z" fill="#BB806E"/>
<path d="M17.1163 3H14.8823C12.3754 3 10.4952 5.11379 10.7782 7.73815L11.1522 13.5485C11.4151 15.5295 13.083 17 15.0542 17H16.0044H16.9546C18.9257 17 20.5937 15.5193 20.8565 13.5485L21.2103 7.73815C21.554 5.22611 19.6232 3 17.1163 3Z" fill="#C68D7B"/>
<path d="M12.1401 10.31C12.2901 9.7 12.8401 9.25 13.5001 9.25C14.1901 9.25 14.7501 9.74 14.8801 10.39C14.9101 10.53 14.7901 10.66 14.6501 10.66H12.4101C12.2301 10.66 12.1001 10.49 12.1401 10.31Z" fill="white"/>
<path d="M19.6699 10.31C19.5199 9.7 18.9699 9.25 18.3099 9.25C17.6299 9.25 17.0599 9.74 16.9299 10.38C16.8999 10.52 17.0199 10.65 17.1599 10.65H19.3999C19.5799 10.65 19.7099 10.48 19.6699 10.31Z" fill="white"/>
<path d="M19.1801 8.41954C19.2301 8.45954 19.2901 8.47954 19.3501 8.47954C19.4401 8.47954 19.5201 8.44954 19.5601 8.36954C19.6501 8.23954 19.6301 8.06954 19.5101 7.97954C19.4801 7.94954 18.7201 7.38954 17.6401 7.51954C17.4901 7.53954 17.3801 7.67954 17.4001 7.82954C17.4201 7.97954 17.5601 8.08954 17.7101 8.06954C18.5018 7.97854 19.0617 8.34304 19.1635 8.40935C19.1736 8.4159 19.1801 8.41954 19.1801 8.41954Z" fill="#212121"/>
<path d="M12.24 8.36951C12.3 8.43951 12.38 8.47951 12.46 8.47951C12.52 8.47951 12.58 8.46951 12.63 8.42951C12.63 8.41951 13.22 7.97951 14.1 8.07951C14.25 8.09951 14.39 7.98951 14.4 7.83951C14.42 7.67951 14.31 7.54951 14.16 7.52951C13.1036 7.40466 12.3792 7.92544 12.2969 7.98462C12.2935 7.98706 12.29 7.98951 12.29 7.98951C12.17 8.07951 12.15 8.24951 12.24 8.36951Z" fill="#212121"/>
<path d="M12.8101 10.42C12.8101 9.92002 13.2101 9.52002 13.7101 9.52002C14.2101 9.52002 14.6101 9.92002 14.6101 10.42C14.6101 10.5 14.6001 10.58 14.5701 10.66H12.8401C12.8201 10.58 12.8101 10.5 12.8101 10.42Z" fill="#F92F60"/>
<path d="M19 10.42C19 9.92002 18.6 9.52002 18.1 9.52002C17.61 9.52002 17.21 9.92002 17.21 10.42C17.21 10.5 17.22 10.58 17.24 10.66H18.97C18.99 10.58 19 10.5 19 10.42Z" fill="#F92F60"/>
<path d="M13.71 9.91003C13.99 9.91003 14.22 10.14 14.22 10.42C14.22 10.5 14.2 10.58 14.17 10.66H13.26C13.22 10.59 13.2 10.51 13.2 10.42C13.2 10.14 13.43 9.91003 13.71 9.91003Z" fill="black"/>
<path d="M18.1001 9.91003C17.8201 9.91003 17.5901 10.14 17.5901 10.42C17.5901 10.5 17.6101 10.58 17.6401 10.66H18.5501C18.5901 10.59 18.6101 10.51 18.6101 10.42C18.6101 10.14 18.3801 9.91003 18.1001 9.91003Z" fill="black"/>
<path d="M13.56 10.06C13.56 10.1484 13.4884 10.22 13.4 10.22C13.3116 10.22 13.24 10.1484 13.24 10.06C13.24 9.97166 13.3116 9.90002 13.4 9.90002C13.4884 9.90002 13.56 9.97166 13.56 10.06Z" fill="white"/>
<path d="M17.9899 10.06C17.9899 10.1484 17.9183 10.22 17.8299 10.22C17.7416 10.22 17.6699 10.1484 17.6699 10.06C17.6699 9.97166 17.7416 9.90002 17.8299 9.90002C17.9183 9.90002 17.9899 9.97166 17.9899 10.06Z" fill="white"/>
<path d="M15.6435 10.2775L15.1492 11.9575C15.0447 12.2975 15.2918 12.6475 15.634 12.6475H16.366C16.7082 12.6475 16.9553 12.2975 16.8508 11.9575L16.3565 10.2775C16.2519 9.9075 15.7576 9.9075 15.6435 10.2775Z" fill="#AB6A55"/>
<path d="M20.9056 4.19C21.4285 4.37 21.881 4.73 22.1827 5.24C22.6553 6.05 22.5849 7.02 22.072 7.74C21.9676 7.88998 21.8933 8.05327 21.8492 8.22411L21 8.84C21 6.1179 19.3698 4.66 18 4.66H17.25C16.75 4.66 16.5 6 16 6C15.5 6 15.25 4.66 14.75 4.66H14C12.2302 4.75 10.8902 6.22 10.8902 8.01V8.83L10.1635 8.30188C10.1203 8.09978 10.0354 7.90657 9.91481 7.74C9.43214 7.04 9.3517 6.1 9.77403 5.31C10.0656 4.76 10.5383 4.38 11.0813 4.19C11.6645 3.99 12.1472 3.6 12.479 3.09C12.9013 2.44 13.6354 2 14.47 2C14.8018 2 15.1136 2.07 15.3951 2.19C15.7772 2.35 16.2197 2.35 16.6018 2.19C16.8833 2.07 17.1951 2 17.5269 2C18.3716 2 19.1258 2.45 19.538 3.13C19.8498 3.63 20.3425 4 20.9056 4.19Z" fill="#212121"/>
<path d="M15.6324 19.0247C15.6461 18.9571 15.6023 18.8912 15.5347 18.8775C15.4671 18.8638 15.4012 18.9076 15.3875 18.9752L14.3775 23.9752C14.3639 24.0429 14.4076 24.1088 14.4753 24.1225C14.5429 24.1361 14.6088 24.0924 14.6225 24.0247L15.6324 19.0247Z" fill="#9B9B9B"/>
<path d="M16.6225 18.9755C16.609 18.9078 16.5432 18.8639 16.4755 18.8775C16.4078 18.891 16.3639 18.9568 16.3775 19.0245L17.3775 24.0245C17.391 24.0921 17.4568 24.136 17.5245 24.1225C17.5922 24.109 17.6361 24.0431 17.6225 23.9755L16.6225 18.9755Z" fill="#9B9B9B"/>
<path d="M14.9593 14.3729C15.2657 14.5488 15.6225 14.6514 15.9995 14.6514C16.3741 14.6514 16.7239 14.5556 17.0246 14.3874L17.2032 14L16.8721 13.7618C16.6007 13.8327 16.3099 13.8714 16.0098 13.8714C15.6971 13.8714 15.3943 13.8293 15.1093 13.7526L14.7998 14L14.9593 14.3729Z" fill="#990838"/>
<path d="M16.8717 13.76L17.1717 14.9906C17.1917 15.0506 17.2417 15.0906 17.3017 15.0906C17.3617 15.0906 17.4217 15.0506 17.4317 14.9906L17.7617 13.6706L17.7575 13.6685C17.7634 13.5805 17.6837 13.4976 17.5931 13.5001C17.5646 13.4993 17.5343 13.5058 17.5039 13.5214C17.4226 13.5635 17.3378 13.6023 17.25 13.6375L16.8717 13.76Z" fill="white"/>
<path d="M14.55 14.9906L14.2359 13.7343C14.1652 13.6213 14.2769 13.482 14.3982 13.5019C14.4295 13.4982 14.4628 13.5036 14.495 13.5214C14.5776 13.5621 14.6627 13.5998 14.75 13.6341L15.11 13.75L14.81 14.9906C14.79 15.0506 14.74 15.0906 14.68 15.0906C14.62 15.0906 14.56 15.0506 14.55 14.9906Z" fill="white"/>
</svg>

<svg xmlns="http://www.w3.org/2000/svg" width="32" height="32" fill="none"><path fill="#321B41" d="M15.92 8.43c-4.1 0-7.82.66-10.52 3.34-.26.26-.39.63-.32 1 .39 2.29 1.5 4.4 3.2 6.05 2.06 1.99 4.78 3.09 7.64 3.09 2.86 0 5.58-1.1 7.64-3.09 1.7-1.64 2.81-3.75 3.2-6.05.06-.36-.06-.74-.32-1-2.7-2.68-6.42-3.34-10.52-3.34Z"/><path fill="#F92F60" d="M15.93 7.43a14.846 14.846 0 0 0-10 3.849c.19 5.361 4.595 9.651 10 9.651s9.81-4.29 10-9.651a14.865 14.865 0 0 0-10-3.849Z"/><path fill="#321B41" d="M15.94 15.33c-2.76 0-5.01 1.07-6.94 2.86l-1 5.905L9 30h3.75l3.262-1 3.238 1H23l1-5.925-1-5.925c-1.91-1.77-4.32-2.82-7.06-2.82Z"/><path fill="#533566" d="M26.23 22.78c.52 1.68.78 3.43.77 5.19L26.98 30H23V18.16c1.33 1.23 2.66 2.81 3.23 4.62ZM5.8 22.81l.02-.08C6.39 20.95 7.7 19.4 9 18.19V30H5v-2.07c0-1.74.27-3.46.8-5.12Z"/><path fill="#F8312F" d="m12.954 16.32 2.847 4.39c.092.14.306.14.398 0l2.877-4.38.174-.13V30h-6.5l.02-13.81.184.13Z"/><path fill="#D3D3D3" d="m18.633 24.36-1.64-9.57-.826-1.21h-.876l-.408 1.21-1.61 9.95h.01l-.03.21c-.03.21.173.39.367.32.479-.18 1.05-.08 1.437.3.53.52 1.375.52 1.905 0 .367-.36.897-.47 1.365-.33.235.07.459-.13.418-.36l-.112-.52Z"/><path fill="#E6E6E6" d="m13.469 20.01 2.197-1.88a.525.525 0 0 1 .668 0l2.197 1.88c.304.21.719 0 .719-.37v-3.88a8.97 8.97 0 0 0-3.25-.6c-1.144 0-2.238.21-3.25.6v3.88c0 .37.415.58.719.37Z"/><path fill="#212121" d="M20.484 14.66c.16-.35.28-.73.33-1.13l.089-1.44c.309-.02.608-.13.847-.31v.92c0 .85-.498 1.62-1.266 1.96ZM10.25 11.79c.25.18.558.29.897.3l.1 1.45c.05.41.169.8.338 1.16a2.158 2.158 0 0 1-1.335-1.99v-.92Z"/><path fill="#BB806E" d="M9.477 10.818c.418.833.807 1.4 1.713 1.4l-.22-3.345c-.836-.628-1.583-1.08-1.871-1.143-.887-.205-.13 2.09.378 3.088ZM22.43 10.818c-.42.833-.808 1.4-1.714 1.4l.22-3.345c.836-.628 1.583-1.08 1.872-1.143.886-.205.13 2.09-.379 3.088Z"/><path fill="#C68D7B" d="M17.116 3h-2.234c-2.507 0-4.387 2.114-4.104 4.738l.374 5.81C11.415 15.53 13.083 17 15.054 17h1.9c1.972 0 3.64-1.48 3.902-3.451l.354-5.81C21.554 5.225 19.623 3 17.116 3Z"/><path fill="#fff" d="M12.14 10.31c.15-.61.7-1.06 1.36-1.06.69 0 1.25.49 1.38 1.14.03.14-.09.27-.23.27h-2.24c-.18 0-.31-.17-.27-.35ZM19.67 10.31c-.15-.61-.7-1.06-1.36-1.06-.68 0-1.25.49-1.38 1.13-.03.14.09.27.23.27h2.24c.18 0 .31-.17.27-.34Z"/><path fill="#212121" d="M19.18 8.42c.05.04.11.06.17.06.09 0 .17-.03.21-.11.09-.13.07-.3-.05-.39-.03-.03-.79-.59-1.87-.46a.28.28 0 0 0-.24.31c.02.15.16.26.31.24a2.22 2.22 0 0 1 1.453.34l.017.01ZM12.24 8.37c.06.07.14.11.22.11.06 0 .12-.01.17-.05 0-.01.59-.45 1.47-.35.15.02.29-.09.3-.24a.274.274 0 0 0-.24-.31 2.716 2.716 0 0 0-1.863.455l-.007.005a.27.27 0 0 0-.05.38Z"/><path fill="#F92F60" d="M12.81 10.42c0-.5.4-.9.9-.9s.9.4.9.9c0 .08-.01.16-.04.24h-1.73a.986.986 0 0 1-.03-.24ZM19 10.42a.896.896 0 1 0-1.76.24h1.73c.02-.08.03-.16.03-.24Z"/><path fill="#000" d="M13.71 9.91c.28 0 .51.23.51.51 0 .08-.02.16-.05.24h-.91a.512.512 0 0 1 .45-.75ZM18.1 9.91c-.28 0-.51.23-.51.51 0 .08.02.16.05.24h.91a.512.512 0 0 0-.45-.75Z"/><path fill="#fff" d="M13.56 10.06a.16.16 0 1 1-.32 0 .16.16 0 0 1 .32 0ZM17.99 10.06a.16.16 0 1 1-.32 0 .16.16 0 0 1 .32 0Z"/><path fill="#AB6A55" d="m15.643 10.277-.494 1.68c-.104.34.143.69.485.69h.732c.342 0 .59-.35.485-.69l-.494-1.68c-.105-.37-.6-.37-.713 0Z"/><path fill="#212121" d="M20.906 4.19c.523.18.975.54 1.277 1.05.472.81.402 1.78-.111 2.5-.104.15-.179.313-.223.484L21 8.84c0-2.722-1.63-4.18-3-4.18h-.75C16.75 4.66 16.5 6 16 6s-.75-1.34-1.25-1.34H14c-1.77.09-3.11 1.56-3.11 3.35v.82l-.726-.528a1.494 1.494 0 0 0-.25-.562 2.343 2.343 0 0 1-.14-2.43c.292-.55.764-.93 1.307-1.12.584-.2 1.066-.59 1.398-1.1A2.38 2.38 0 0 1 14.47 2c.332 0 .644.07.925.19.382.16.825.16 1.207 0a2.352 2.352 0 0 1 2.936.94c.312.5.805.87 1.368 1.06Z"/><path fill="#9B9B9B" d="M15.632 19.025a.125.125 0 0 0-.245-.05l-1.01 5a.125.125 0 0 0 .245.05l1.01-5ZM16.622 18.976a.125.125 0 1 0-.244.049l1 5a.125.125 0 0 0 .244-.05l-1-5Z"/><path fill="#990838" d="M14.96 14.373c.306.176.662.278 1.04.278.374 0 .724-.095 1.025-.264l.178-.387-.33-.238a3.466 3.466 0 0 1-1.763-.01L14.8 14l.16.373Z"/><path fill="#fff" d="m16.872 13.76.3 1.23c.02.06.07.1.13.1s.12-.04.13-.1l.33-1.32-.005-.002a.164.164 0 0 0-.164-.168.183.183 0 0 0-.09.021c-.08.042-.165.081-.253.116l-.378.123ZM14.55 14.99l-.314-1.256c-.07-.113.04-.252.162-.232a.16.16 0 0 1 .097.02c.083.04.168.078.255.112l.36.116-.3 1.24c-.02.06-.07.1-.13.1s-.12-.04-.13-.1Z"/></svg>
